X:1
T:James Gibb editions
T:Si no os uviera mirado - Vásquez
T:#
%%score [ 1 2 3 4 ]
L:1/8
Q:1/4=180
M:none
K:C
V:1 treble nm="Soprano" snm="S"
V:2 treble nm="Alto" snm="A"
V:3 treble-8 nm="Tenor" snm="T"
V:4 bass nm="Bass" snm="B"
V:1
"^Si no os uviera mirado""^Juan Vásquez\n(c.1500-c.1560)" z4 A4 A4 ^G4 | A4 c8 B4 | A8 ^G8 | z16 | %4
w: Si no~~os u-|vie- ra mi-|ra- do,||
[M:4/2] z8 z4 G4 | A4 B4 c8 | z4 G4 A4 B4 | (c2 B2 A2 G2) A4 ((B4- | B2 A2)) (A8 ^G4) | A16 | %10
w: Plu-|guie- r'a Dios,|plu- guie- r'a|Dios * * * que no~~os|* * vie\- *|ra;|
 z4 A4 A4 A4 | B8 G8 | F4 (E8 D4) | E4 B4 c8 | B8 z8 | z4 B4 c8 | B4 d4 (e2 d2 c2 B2) | %17
w: Por- que mi|vi- da|no fue\- *|ra Ca- ti-|va,|Ca- ti-|va de su * * *|
 (c4 d2 c2) (_B2 A2 A4- | A4 ^G4) A8- | A8 z4 c4 | c4 c4 A8 | B8 A8 | (G8 F8) | E8 z8 | %24
w: cuy\- * * da\- * *|* * do.|* Más,|pues os é|co- nos-|ci\- *|do|
 z4 c4 c4 c4 | A8 B8 | A8 (G8 | F8) E8 | z8 z4 c4- | c4 B4 A6 A2 | G4 E4 F8 | E16 | z16 | %33
w: So- la- men-|te por|que- re\-|* ros|Quie\-|* ro más que-|dar per- di-|do,||
 z4 A8 ^G4 | A8 E8 | z8 z4 E4 | (C4 D4) (E2 F2) (G2 A2) | (B2 c2 d2 B2) (c2 B2 A2 ^G2) | %38
w: Que co-|bra- do,|que|co\- * bra\- * do *|por * * * no * * *|
 (A4 B6 A2 A4- | A4 ^G4) A16 |] %40
w: ve\- * * *|* * ros.|
V:2
 z4 E4 E4 E4 | E8 A,4 B,4 | (C4 D4) E4 B,4 | C4 D4 E4 A,4 |[M:4/2] (B,4 C2 D2) (E2 F2 G4 | %5
w: Si no~~os u-|vie- ra mi-|ra\- * do, Plu-|guie- r'a Dios que|no~~os * * vie\- * *|
 F4 D4) G4 C4 | D4 E4 F4 G4- | G4 (F8 D4) | F8 E8- | E16 | z4 F4 F4 F4 | D8 E4 E4 | %12
w: * * ra, plu-|guie- r'a Dios que|* no~~os *|vie- ra;||Por- que mi|vi- da no|
 A,4 ^G,4 z4 A4 | (A4 ^G4) A8 | z8 z4 A4 | (A4 ^G4) A8 | ^G4 B4 (c4 G4) | (A4 F4 G2 F2 E2 D2) | %18
w: fue- ra Ca-|ti\- * va,|Ca-|ti\- * va|de su cuy\- *|da\- * * * * *|
 E8 z4 C4 | C4 C4 D4 (E4- | E4 C4) C8 | (B,4 G,4 A,2 B,2 C2 D2) | E8 z8 | z4 G,4 C4 C4 | D4 E8 C4 | %25
w: do. Más,|pues os é co\-|* * nos-|ci\- * * * * *|do|So- la- men-|te por que-|
 (C8 B,4 G,4 | A,2 B,2 C2 D2) E8 | z16 | z8 G4 F4 | E4 D4 F8 | E4 (C8 B,4) | C8 B,4 E4- | %32
w: re\- * *|* * * * ros||Quie- ro|más que- dar|per- di\- *|do, Que co\-|
 E4 D4 E8 | D4 (F8 E2 D2) | E4 C4 B,4 E4 | (C4 D4) E8 | A,8 (B,4 E4) | D8 C4 E4- | E4 B,4 (C4 D4) | %39
w: * bra- do|por no * *|ve- ros, que co-|bra\- * do|por no *|ve- ros, por|* no ve\- *|
 E24 |] %40
w: ros.|
V:3
 z4 c4 c4 B4 | c4 (A2 B2) (c2 d2 e4) | A8 B8 | z4 B4 c4 d4 |[M:4/2][K:treble-8] e4 e8 e4 | d8 e8 | %6
w: Si no~~os u-|vie- ra * mi\- * *|ra- do,|Plu- guie- r'a|Dios que no~~os|vie- ra;|
 z4 B4 d4 d4 | (e2 d2 c2 B2) c4 B4 | (c4 d4 B8) | A4 c4 c4 c4 | d4 c8 d4 | (B4 G6 A2 B2 c2 | %12
w: plu- guie- r'a|Dios * * * que no~~os|vie\- * *|ra; Por- que mi|vi- da no|fue\- * * * *|
 d4 B8 A4) | B8 z8 | z4 B4 c8 | B8 z8 | z4 g4 (g2 f2) (e2 d2) | e4 d4- d4 c4 | B8 A8- | A8 z8 | %20
w: |ra|Ca- ti-|va,|Ca- ti\- * va *|de su * cuy-|da- do.||
 z8 z4 f4 | e4 (d6 c2) A4 | B4 (c8 B4 | c6 d2) e8 | z16 | z4 f4 e4 d4- | d2 c2 A4 B4 (c4- | %27
w: Más,|pues os * é|co- nos\- *|ci\- * do||So- la- men\-|* te por que- re\-|
 c4 B4) c4 g4 | f4 e4 d4 c4 | g8 c8 | c8 z8 | z4 A8 ^G4 | A8 B4 c4 | A8 d8 | c4 A8 ^G4 | %35
w: * * ros Quie-|ro más Que- dar|per- di-|do,|Que co-|bra- do por|no ve-|ros, que co-|
 A4 A4 B4 c4- | c4 (B2 A2) G4 g4 | (g6 f2) (e2 d2 c2 B2) | c4 (d6 c2) A4 | B8 A16 |] %40
w: bra- do por no|* ve\- * ros, que|co\- * bra\- * * *|do por * no|ve- ros.|
V:4
 z4 A,4 A,4 E,4 | A,8 A,4 G,4 | F,8 E,8 | z8 E,4 F,4 |[M:4/2] G,4 A,4 E,8 | F,4 G,4 C,8 | %6
w: Si no~~os u-|vie- ra mi-|ra- do,|Plu- guie-|r'a Dios que|no~~os vie- ra,|
 z4 E,4 D,4 G,4 | C,4 F,8 G,4 | (F,4 D,4 E,8) | A,16 | z4 F,4 F,4 D,4 | G,8 E,8 | (D,4 E,4) F,8 | %13
w: plu- guie- r'a|Dios que no~~os|vie\- * *|ra;|Por- que mi|vi- da|no * fue-|
 E,8 z4 A,4 | (A,4 ^G,4) A,8 | z16 | z4 G,4 C8 | A,4 _B,4 G,4 A,4 | E,8 A,,8- | A,,8 z4 A,4 | %20
w: ra Ca-|ti\- * va,||Ca- ti-|va de su cuy-|da- do.|* Más,|
 A,4 A,4 F,8 | G,8 F,8 | (E,4 C,4 D,8) | C,8 A,,8 | z4 A,4 A,4 A,4 | F,8 G,8 | F,8 (E,4 C,4 | %27
w: pues os é|co- nos-|ci\- * *|* do|So- la- men-|te por|que- re\- *|
 D,8) C,8 | z4 C4 B,4 A,4 | G,8 F,8 | C,8 D,8 | A,,8 E,8 | F,8 E,4 C,4 | D,6 C,2 B,,8 | A,,8 E,8 | %35
w: * ros|Quie- ro más|que- dar|per- di-|do, Que|co- bra- do|por no ve-|ros, que|
 F,8 (E,4 C,4) | F,8 E,8 | G,8 (A,8- | A,4 G,4 F,8 | E,8) A,,16 |] %40
w: co- bra\- *|do por|no ve\-||* ros.|

